assets/icons/24px/stroke/chip-24px.svg

<svg width="24" height="24" viewBox="0 0 24 24" fill="none" xmlns="http://www.w3.org/2000/svg">
<path fill-rule="evenodd" clip-rule="evenodd" d="M9.5 2C10.0523 2 10.5 2.44772 10.5 3V4.5H13.5V3C13.5 2.44772 13.9477 2 14.5 2C15.0523 2 15.5 2.44772 15.5 3V4.50414C15.9979 4.51123 16.443 4.5304 16.8278 4.58214C17.4833 4.67027 18.1117 4.86902 18.6213 5.37868C19.131 5.88834 19.3297 6.51669 19.4179 7.17221C19.4696 7.55703 19.4888 8.00207 19.4959 8.5H21C21.5523 8.5 22 8.94772 22 9.5C22 10.0523 21.5523 10.5 21 10.5H19.5V13.5H21C21.5523 13.5 22 13.9477 22 14.5C22 15.0523 21.5523 15.5 21 15.5H19.4959C19.4888 15.9979 19.4696 16.443 19.4179 16.8278C19.3297 17.4833 19.131 18.1117 18.6213 18.6213C18.1117 19.131 17.4833 19.3297 16.8278 19.4179C16.443 19.4696 15.9979 19.4888 15.5 19.4959V21C15.5 21.5523 15.0523 22 14.5 22C13.9477 22 13.5 21.5523 13.5 21V19.5H10.5V21C10.5 21.5523 10.0523 22 9.5 22C8.94772 22 8.5 21.5523 8.5 21V19.4959C8.00207 19.4888 7.55703 19.4696 7.17221 19.4179C6.51669 19.3297 5.88834 19.131 5.37868 18.6213C4.86902 18.1117 4.67027 17.4833 4.58214 16.8278C4.5304 16.443 4.51123 15.9979 4.50414 15.5H3C2.44772 15.5 2 15.0523 2 14.5C2 13.9477 2.44772 13.5 3 13.5H4.5V10.5H3C2.44772 10.5 2 10.0523 2 9.5C2 8.94772 2.44772 8.5 3 8.5H4.50414C4.51123 8.00207 4.5304 7.55703 4.58214 7.17221C4.67027 6.51669 4.86902 5.88834 5.37868 5.37868C5.88834 4.86902 6.51669 4.67027 7.17221 4.58214C7.55703 4.5304 8.00207 4.51123 8.5 4.50414V3C8.5 2.44772 8.94772 2 9.5 2ZM9.5 17.5H14.5C15.4711 17.5 16.0988 17.4979 16.5613 17.4357C16.995 17.3774 17.131 17.2832 17.2071 17.2071C17.2832 17.131 17.3774 16.995 17.4357 16.5613C17.4979 16.0988 17.5 15.4711 17.5 14.5V9.5C17.5 8.52892 17.4979 7.90121 17.4357 7.4387C17.3774 7.00496 17.2832 6.86902 17.2071 6.79289C17.131 6.71677 16.995 6.62262 16.5613 6.56431C16.0988 6.50212 15.4711 6.5 14.5 6.5H9.5C8.52892 6.5 7.90121 6.50212 7.4387 6.56431C7.00496 6.62262 6.86902 6.71677 6.79289 6.79289C6.71677 6.86902 6.62262 7.00496 6.56431 7.4387C6.50212 7.90121 6.5 8.52892 6.5 9.5V14.5C6.5 15.4711 6.50212 16.0988 6.56431 16.5613C6.62262 16.995 6.71677 17.131 6.79289 17.2071C6.86902 17.2832 7.00496 17.3774 7.4387 17.4357C7.90121 17.4979 8.52892 17.5 9.5 17.5ZM10.4606 8.49998C10.4739 8.49999 10.4871 8.5 10.5 8.5H13.5C13.5129 8.5 13.5261 8.49999 13.5394 8.49998C13.7393 8.49986 13.9772 8.49971 14.1819 8.52722C14.4289 8.56044 14.7707 8.64935 15.0607 8.93934C15.3507 9.22933 15.4396 9.57107 15.4728 9.81812C15.5003 10.0228 15.5001 10.2607 15.5 10.4606C15.5 10.4739 15.5 10.4871 15.5 10.5V13.5C15.5 13.5129 15.5 13.5261 15.5 13.5394C15.5001 13.7393 15.5003 13.9772 15.4728 14.1819C15.4396 14.4289 15.3507 14.7707 15.0607 15.0607C14.7707 15.3507 14.4289 15.4396 14.1819 15.4728C13.9772 15.5003 13.7393 15.5001 13.5394 15.5C13.5261 15.5 13.5129 15.5 13.5 15.5H10.5C10.4871 15.5 10.4739 15.5 10.4606 15.5C10.2607 15.5001 10.0228 15.5003 9.81812 15.4728C9.57107 15.4396 9.22933 15.3507 8.93934 15.0607C8.64935 14.7707 8.56044 14.4289 8.52722 14.1819C8.49971 13.9772 8.49986 13.7393 8.49998 13.5394C8.49999 13.5261 8.5 13.5129 8.5 13.5V10.5C8.5 10.4871 8.49999 10.4739 8.49998 10.4606C8.49986 10.2607 8.49971 10.0228 8.52722 9.81812C8.56044 9.57107 8.64935 9.22933 8.93934 8.93934C9.22933 8.64935 9.57107 8.56044 9.81812 8.52722C10.0228 8.49971 10.2607 8.49986 10.4606 8.49998ZM10.0808 10.51C10.0808 10.51 10.0813 10.5099 10.0824 10.5097ZM10.5 10.5H13.5V13.5H10.5V10.5ZM10.0808 13.49C10.0809 13.49 10.0815 13.4901 10.0825 13.4903ZM10.5097 13.9176C10.5099 13.9187 10.51 13.9192 10.51 13.9192ZM13.49 13.9192C13.49 13.9192 13.4901 13.9187 13.4903 13.9176ZM13.9192 10.51C13.9192 10.51 13.9187 10.5099 13.9176 10.5097ZM13.4903 10.0825C13.4901 10.0815 13.49 10.0809 13.49 10.0808ZM10.5097 10.0824C10.5099 10.0813 10.51 10.0808 10.51 10.0808Z" fill="white"/>
</svg>

<svg width="24" height="24" fill="none" xmlns="http://www.w3.org/2000/svg"><path fill-rule="evenodd" clip-rule="evenodd" d="M9.5 2a1 1 0 0 1 1 1v1.5h3V3a1 1 0 1 1 2 0v1.504c.498.007.943.026 1.328.078.655.088 1.284.287 1.793.797.51.51.709 1.138.797 1.793.052.385.07.83.078 1.328H21a1 1 0 1 1 0 2h-1.5v3H21a1 1 0 1 1 0 2h-1.504c-.007.498-.026.943-.078 1.328-.088.655-.287 1.284-.797 1.793-.51.51-1.138.709-1.793.797-.385.052-.83.07-1.328.078V21a1 1 0 1 1-2 0v-1.5h-3V21a1 1 0 1 1-2 0v-1.504a11.493 11.493 0 0 1-1.328-.078c-.655-.088-1.284-.287-1.793-.797-.51-.51-.709-1.138-.797-1.793-.052-.385-.07-.83-.078-1.328H3a1 1 0 1 1 0-2h1.5v-3H3a1 1 0 1 1 0-2h1.504c.007-.498.026-.943.078-1.328.088-.655.287-1.284.797-1.793.51-.51 1.138-.709 1.793-.797.385-.052.83-.07 1.328-.078V3a1 1 0 0 1 1-1zm0 15.5h5c.971 0 1.599-.002 2.061-.064.434-.059.57-.153.646-.229.076-.076.17-.212.229-.646.062-.462.064-1.09.064-2.061v-5c0-.971-.002-1.599-.064-2.061-.059-.434-.153-.57-.229-.646-.076-.076-.212-.17-.646-.229-.462-.062-1.09-.064-2.061-.064h-5c-.971 0-1.599.002-2.061.064-.434.059-.57.153-.646.229-.076.076-.17.212-.229.646C6.502 7.9 6.5 8.529 6.5 9.5v5c0 .971.002 1.599.064 2.061.059.434.153.57.229.646.076.076.212.17.646.229.462.062 1.09.064 2.061.064zm.96-9h3.08c.2 0 .437 0 .642.027.247.033.589.122.879.412.29.29.379.632.412.88.027.204.027.442.027.642v3.079c0 .2 0 .437-.027.642a1.488 1.488 0 0 1-.412.879c-.29.29-.632.379-.88.412-.204.027-.442.027-.642.027H10.46c-.2 0-.437 0-.642-.027a1.488 1.488 0 0 1-.879-.412 1.488 1.488 0 0 1-.412-.88c-.027-.204-.027-.442-.027-.642V10.5v-.04c0-.2 0-.437.027-.642.033-.247.122-.589.412-.879.29-.29.632-.379.88-.412.204-.027.442-.027.642-.027zm-.38 2.01h.002zm.42-.01h3v3h-3v-3zm-.42 2.99h.002zm.43.428v.001zm2.98.001v-.001zm.43-3.409h-.002zm-.43-.428a.02.02 0 0 1 0-.001zm-2.98 0v-.001z" fill="#fff"/></svg>
